X:60
T: Dancing Bear, The
R:hp 32 reel
C: Bob McQuillen  2/22/78
N: Bob wrote:
F:http://blackrosetheband.googlepages.com/ABCTUNES.ABC May 2009
N: I have a wonderful friend who is a Bear named Oso and this tune is for
N:m because he
N: likes it. Barry Nielson likes it too, and so its for him, too, with lov
N:from Mac.
Z: John Chambers <jc@trillian.mit.edu>
M: C|
L: 1/8
K:Em
|: "Em"EFGF EFGF | EFGA G2E2 |  "A"EFGF EFGF |     EFGA G2E2 |
|  "Em"EFGF EFGF | EFGA B4   | "B7"B2Bc BAGF | "Em"G2E2 E4  :|
|: "Em"e2ef gfef | gfe2 e4   |  "A"e2ef gfef |     gfe2 e4   |
|   "C"e2ef gfef | gfe2 e2dc | "B7"B2Bc BcBA | "Em"GFE2 E4  :|

